SVG_Azure_Grouped/Compute/Container.svg

<?xml version="1.0" encoding="UTF-8" standalone="no"?>
<!-- Generated by Microsoft Visio, SVG Export Container.svg Page-1 -->

<svg
   xmlns:dc="http://purl.org/dc/elements/1.1/"
   xmlns:cc="http://creativecommons.org/ns#"
   xmlns:rdf="http://www.w3.org/1999/02/22-rdf-syntax-ns#"
   xmlns:svg="http://www.w3.org/2000/svg"
   xmlns="http://www.w3.org/2000/svg"
   xmlns:sodipodi="http://sodipodi.sourceforge.net/DTD/sodipodi-0.dtd"
   xmlns:inkscape="http://www.inkscape.org/namespaces/inkscape"
   width="0.78735709in"
   height="0.78735709in"
   viewBox="0 0 56.689778 56.689998"
   xml:space="preserve"
   class="st4"
   version="1.1"
   id="svg29"
   sodipodi:docname="Container.svg"
   style="font-size:12px;overflow:visible;color-interpolation-filters:sRGB;fill:none;fill-rule:evenodd;stroke-linecap:square;stroke-miterlimit:3"
   inkscape:version="0.92.5 (2060ec1f9f, 2020-04-08)"><metadata
   id="metadata35"><rdf:RDF><cc:Work
       rdf:about=""><dc:format>image/svg+xml</dc:format><dc:type
         rdf:resource="http://purl.org/dc/dcmitype/StillImage" /></cc:Work></rdf:RDF></metadata><defs
   id="defs33" /><sodipodi:namedview
   pagecolor="#ffffff"
   bordercolor="#666666"
   borderopacity="1"
   objecttolerance="10"
   gridtolerance="10"
   guidetolerance="10"
   inkscape:pageopacity="0"
   inkscape:pageshadow="2"
   inkscape:window-width="640"
   inkscape:window-height="480"
   id="namedview31"
   showgrid="false"
   inkscape:zoom="1.7193066"
   inkscape:cx="37.795072"
   inkscape:cy="23.279613"
   inkscape:window-x="0"
   inkscape:window-y="0"
   inkscape:window-maximized="0"
   inkscape:current-layer="svg29" />
	<style
   type="text/css"
   id="style2">
	<![CDATA[
		.st1 {fill:#59b4d9;stroke:none;stroke-linecap:butt;stroke-width:12.24}
		.st2 {fill:#804998;stroke:none;stroke-linecap:butt;stroke-width:12.24}
		.st3 {fill:#ffffff;fill-opacity:0.2;stroke:none;stroke-linecap:butt;stroke-width:12.24}
		.st4 {fill:none;fill-rule:evenodd;font-size:12px;overflow:visible;stroke-linecap:square;stroke-miterlimit:3}
	]]>
	</style>

	<g
   id="g27"
   transform="translate(-12.24016,-12.2443)">
		<title
   id="title4">Page-1</title>
		<g
   id="group11466-1"
   transform="translate(12.24,-34.0157)">
			<title
   id="title6">Container.11466</title>
			<g
   id="group11467-2">
				<title
   id="title8">Sheet.11467</title>
				<g
   id="shape11468-3">
					<title
   id="title10">Sheet.11468</title>
					<path
   d="M 0.94,46.26 C 0.38,46.26 0,46.63 0,47.2 v 11.34 c 0,0.57 0.38,0.94 0.94,0.94 h 5.67 c 0.57,0 0.95,-0.37 0.95,-0.94 v -4.72 h 41.57 v 4.72 c 0,0.57 0.38,0.94 1.14,0.94 h 5.48 c 0.56,0 0.94,-0.37 0.94,-0.94 V 47.2 c 0,-0.57 -0.37,-0.94 -0.94,-0.94 z m 54.81,56.69 c 0.57,0 0.94,-0.38 0.94,-0.95 V 90.85 c 0,-0.56 -0.37,-0.94 -0.94,-0.94 h -5.48 c -0.57,0 -0.95,0.38 -0.95,0.94 v 4.54 H 7.56 V 90.67 C 7.56,90.1 7.18,89.72 6.43,89.72 H 0.94 C 0.38,89.72 0,90.1 0,90.85 V 102 c 0,0.57 0.38,0.95 0.94,0.95 z"
   class="st1"
   id="path12"
   inkscape:connector-curvature="0"
   style="fill:#59b4d9;stroke:none;stroke-width:12.23999977;stroke-linecap:butt" />
				</g>
				<g
   id="shape11469-5"
   transform="translate(8.50394,-14.603)">
					<title
   id="title15">Sheet.11469</title>
					<path
   d="M 28.05,84.33 18.62,88 V 72.82 l 9.43,3.3 z M 10.17,75.39 v 9.92 l 6.98,2.7 V 72.94 Z m 0.73,9.19 -0.37,-0.13 v -8.2 L 10.9,76.12 11.27,76 11.64,75.88 v 8.94 L 11.27,84.7 Z m 1.84,0.49 -0.49,-0.13 v -9.18 l 0.49,-0.13 0.49,-0.12 0.49,-0.12 v 10.04 l -0.49,-0.12 z m 2.2,0.73 -0.61,-0.24 V 75.14 l 0.61,-0.12 0.62,-0.24 0.73,-0.25 v 11.64 l -0.73,-0.25 z m 24.75,13.6 -9.31,3.55 V 87.88 l 9.31,3.31 z M 21.8,90.33 v 9.92 l 6.98,2.7 V 87.88 Z m 0.74,9.19 -0.37,-0.12 v -8.21 l 0.37,-0.12 0.37,-0.13 0.36,-0.12 v 8.94 l -0.36,-0.12 z m 1.83,0.61 -0.49,-0.12 v -9.19 l 0.49,-0.12 0.49,-0.12 0.49,-0.13 v 10.05 l -0.49,-0.12 z m 2.21,0.74 -0.61,-0.25 V 90.21 l 0.61,-0.12 0.61,-0.25 0.74,-0.24 v 11.63 l -0.74,-0.24 z m -8.7,-1.47 -9.31,3.55 V 87.88 l 9.31,3.31 z M 0,90.33 v 9.92 l 6.98,2.7 V 87.88 Z M 0.73,99.52 0.37,99.4 V 91.19 L 0.73,91.07 1.1,90.94 1.47,90.82 v 8.94 L 1.1,99.64 Z m 1.84,0.61 -0.49,-0.12 V 90.82 L 2.57,90.7 3.06,90.58 3.55,90.45 v 10.05 l -0.49,-0.12 z m 2.21,0.74 -0.62,-0.25 V 90.21 L 4.78,90.09 5.39,89.84 6.12,89.6 v 11.63 l -0.73,-0.24 z"
   class="st2"
   id="path17"
   inkscape:connector-curvature="0"
   style="fill:#804998;stroke:none;stroke-width:12.23999977;stroke-linecap:butt" />
				</g>
				<g
   id="shape11470-7"
   transform="translate(17.0782,-14.6041)">
					<title
   id="title20">Sheet.11470</title>
					<path
   d="m 19.48,84.33 -9.44,3.68 V 72.82 l 9.44,3.3 z M 31.11,99.4 21.8,102.95 V 87.88 l 9.31,3.31 z M 9.31,99.4 0,102.95 V 87.88 l 9.31,3.31 z"
   class="st3"
   id="path22"
   inkscape:connector-curvature="0"
   style="fill:#ffffff;fill-opacity:0.2;stroke:none;stroke-width:12.23999977;stroke-linecap:butt" />
				</g>
			</g>
		</g>
	</g>
</svg>

<?xml version="1.0" encoding="UTF-8" standalone="no"?>
<!DOCTYPE svg PUBLIC "-//W3C//DTD SVG 1.1//EN" "http://www.w3.org/Graphics/SVG/1.1/DTD/svg11.dtd">
<!-- Generated by Microsoft Visio, SVG Export Container.svg Page-1 -->
<svg xmlns="http://www.w3.org/2000/svg" xmlns:xlink="http://www.w3.org/1999/xlink" xmlns:ev="http://www.w3.org/2001/xml-events"
		width="1.1274in" height="1.42984in" viewBox="0 0 81.1729 102.949" xml:space="preserve" color-interpolation-filters="sRGB"
		class="st4">
	<style type="text/css">
	<![CDATA[
		.st1 {fill:#59b4d9;stroke:none;stroke-linecap:butt;stroke-width:12.24}
		.st2 {fill:#804998;stroke:none;stroke-linecap:butt;stroke-width:12.24}
		.st3 {fill:#ffffff;fill-opacity:0.2;stroke:none;stroke-linecap:butt;stroke-width:12.24}
		.st4 {fill:none;fill-rule:evenodd;font-size:12px;overflow:visible;stroke-linecap:square;stroke-miterlimit:3}
	]]>
	</style>

	<g>
		<title>Page-1</title>
		<g id="group11187-1" transform="translate(12.24,-34.0157)">
			<title>Container.11187</title>
			<g id="group11188-2">
				<title>Sheet.11188</title>
				<g id="shape11189-3">
					<title>Sheet.11189</title>
					<path d="M0.94 46.26 C0.38 46.26 0 46.63 0 47.2 L0 58.54 C0 59.11 0.38 59.48 0.94 59.48 L6.61 59.48 C7.18 59.48
								 7.56 59.11 7.56 58.54 L7.56 53.82 L49.13 53.82 L49.13 58.54 C49.13 59.11 49.51 59.48 50.27 59.48
								 L55.75 59.48 C56.31 59.48 56.69 59.11 56.69 58.54 L56.69 47.2 C56.69 46.63 56.32 46.26 55.75 46.26
								 L0.94 46.26 ZM55.75 102.95 C56.32 102.95 56.69 102.57 56.69 102 L56.69 90.85 C56.69 90.29 56.32
								 89.91 55.75 89.91 L50.27 89.91 C49.7 89.91 49.32 90.29 49.32 90.85 L49.32 95.39 L7.56 95.39 L7.56
								 90.67 C7.56 90.1 7.18 89.72 6.43 89.72 L0.94 89.72 C0.38 89.72 0 90.1 0 90.85 L0 102 C0 102.57 0.38
								 102.95 0.94 102.95 L55.75 102.95 Z" class="st1"/>
				</g>
				<g id="shape11190-5" transform="translate(8.50394,-14.603)">
					<title>Sheet.11190</title>
					<path d="M28.05 84.33 L18.62 88 L18.62 72.82 L28.05 76.12 L28.05 84.33 ZM10.17 75.39 L10.17 85.31 L17.15 88.01
								 L17.15 72.94 L10.17 75.39 ZM10.9 84.58 L10.53 84.45 L10.53 76.25 L10.9 76.12 L11.27 76 L11.64 75.88
								 L11.64 84.82 L11.27 84.7 L10.9 84.58 ZM12.74 85.07 L12.25 84.94 L12.25 75.76 L12.74 75.63 L13.23
								 75.51 L13.72 75.39 L13.72 85.43 L13.23 85.31 L12.74 85.07 ZM14.94 85.8 L14.33 85.56 L14.33 75.14
								 L14.94 75.02 L15.56 74.78 L16.29 74.53 L16.29 86.17 L15.56 85.92 L14.94 85.8 ZM39.69 99.4 L30.38
								 102.95 L30.38 87.88 L39.69 91.19 L39.69 99.4 ZM21.8 90.33 L21.8 100.25 L28.78 102.95 L28.78 87.88
								 L21.8 90.33 ZM22.54 99.52 L22.17 99.4 L22.17 91.19 L22.54 91.07 L22.91 90.94 L23.27 90.82 L23.27
								 99.76 L22.91 99.64 L22.54 99.52 ZM24.37 100.13 L23.88 100.01 L23.88 90.82 L24.37 90.7 L24.86 90.58
								 L25.35 90.45 L25.35 100.5 L24.86 100.38 L24.37 100.13 ZM26.58 100.87 L25.97 100.62 L25.97 90.21
								 L26.58 90.09 L27.19 89.84 L27.93 89.6 L27.93 101.23 L27.19 100.99 L26.58 100.87 ZM17.88 99.4 L8.57
								 102.95 L8.57 87.88 L17.88 91.19 L17.88 99.4 ZM0 90.33 L0 100.25 L6.98 102.95 L6.98 87.88 L0 90.33
								 ZM0.73 99.52 L0.37 99.4 L0.37 91.19 L0.73 91.07 L1.1 90.94 L1.47 90.82 L1.47 99.76 L1.1 99.64 L0.73
								 99.52 ZM2.57 100.13 L2.08 100.01 L2.08 90.82 L2.57 90.7 L3.06 90.58 L3.55 90.45 L3.55 100.5 L3.06
								 100.38 L2.57 100.13 ZM4.78 100.87 L4.16 100.62 L4.16 90.21 L4.78 90.09 L5.39 89.84 L6.12 89.6 L6.12
								 101.23 L5.39 100.99 L4.78 100.87 Z" class="st2"/>
				</g>
				<g id="shape11191-7" transform="translate(17.0782,-14.6041)">
					<title>Sheet.11191</title>
					<path d="M19.48 84.33 L10.04 88.01 L10.04 72.82 L19.48 76.12 L19.48 84.33 ZM31.11 99.4 L21.8 102.95 L21.8 87.88
								 L31.11 91.19 L31.11 99.4 ZM9.31 99.4 L0 102.95 L0 87.88 L9.31 91.19 L9.31 99.4 Z" class="st3"/>
				</g>
			</g>
		</g>
	</g>
</svg>
